X:1
T:Peter Baillie
M:C
L:1/8
Q:80
C:
S:Strathspey
K:HP
|: a | \
{ef}e3/2c/2{gef}e3/2d/2e/2{g}A3/2{gef}e3/2d/2 | \
{g}B/2c/2d{g}G3/2{d}B/2{gf}g3/2d/2{g}B/2c/2d | \
{gef}e3/2A/2{gef}e3/2d/2e/2{g}A3/2{gef}e3/2d/2 |
{g}e/2f/2gB/2c/2d{gef}e3/2A/2{GAG}A:| [ | \
e | \
{ag}a3/2g/2{a}e/2a3/2g/2f/2e{ag}a3/2e/2 | \
{gf}g3/2e/2{Gdc}d/2g3/2{Bd}B/2{e}G3/2{dc}d/2{e}B3/2 |
{ag}a3/2g/2{a}e/2a3/2g/2f/2e{ag}a3/2e/2 | \
{gf}g3/2d/2{g}B/2c/2d{gef}e3/2A/2{GAG}A/2e3/2{ag}a3/2g/2{a}e/2a3/2g/2f/2
e{ag}a3/2e/2 | \
{gf}g3/2e/2{Gdc}d/2g3/2{Bd}B/2{e}G3/2{dc}d/2{e}B3/2 |
{g}A/2B/2c{g}B/2c/2d{g}c/2{GdG}e3/2{ag}a3/2e/2 | \
{gf}g3/2d/2{g}B/2c/2d{g}c/2{GdG}e3/2a/2g/2f|]
